X: 26676
T: Midsummer's Night
R: reel
M: 4/4
K: Adorian
|:egdB ABAG|EG~G2 EGDG|egdB A2 (3Bcd|(efg fa gedg|
egdB ABAG|EG~G2 EGDE|G3A BA (3Bcd|1 egdB BAA2:|2 egdB cAFA||

